X:1
T:Title
%%score [ 1 2 3 4 ]
L:1/8
Q:1/4=300
M:2/2
K:C
V:1 treble nm="Soprano"
V:2 treble nm="Alto"
V:3 treble-8 nm="Tenore"
V:4 bass nm="Basso"
V:1
 z16 | A4 B4 A4 G4 | B4 B4 d4 d4 | c4 c4 B4 G4- | G4 B4 A4 G4 | A4 B4 A4 G4- | G4 ^F4 G8 | z16 | %8
w: |rez les vi- gnes,|vi- gnes, vi- gnes,|vi- gno- let, Mar-|­ got la- bou-|rez les vi- gnes|_ bien- tôt.||
 z16 | z16 | G4 G4 d4 d4 | d4 d4 e4 e4 | d8 B8 | B4 d4 c4 B4 | A4 G4 ^F4 D4 | G4 D4 G4 D4 | %16
w: ||En re- ve- nant|de Lor- rai- ne,|Mar- got,|ren- con- trai trois|ca- pi- tai- nes|vi- gnes, vi- gnes,|
 G4 A4 B8 | B4 d4 c4 B4 | A4 G4 ^F4 G4 | A8 G8 | G4 B4 A4 G4 | A4 B4 A4 G4 | B4 B4 d4 d4 | %23
w: vi- gno- let,|Mar- got la- bou-|rez les vi- gnes|bien- tôt.|Mar- got la- bou-|rez les vi- gnes,|vi- gnes, vi- gnes,|
 c4 c4 B4 G4- | G4 B4 A4 G4 | A4 B4 A4 G4- | G4 ^F4 G8 :| %27
w: vi- gno- let, Mar-|* got la- bou-|rez les vi- gnes|_ bien- tôt.|
V:2
 D4 G4 E4 E4 | D4 D4 D4 B,4 | D4 D4 B,4 D4 | E4 ^F4 G4 D4- | D4 G4 E4 E4 | D4 D4 D4 C4 | D8 B,8 | %7
w: Mar- got la- bou-|rez les vi- gnes,|vi- gnes, vi- gnes,|vi- gno- let, Mar-|­ got la- bou-|rez les vi- gnes|bien- tôt.|
 z16 | z16 | z16 | E4 E4 ^F4 G4 | A4 B4 A4 G4- | G4 ^F4 G4 D4 | G4 ^F4 E4 D4- | D4 E4 D4 B,4 | %15
w: |||En re- ve- nant|de Lor- rai- ne,|_ Mar- got, ren-|con- trai trois ca-|* pi- tai- nes|
 B,4 B,4 G,4 G4 | E4 ^F4 G4 D4- | D4 D4 E4 G4 | ^F4 E4 D4 G4- | G4 ^F4 G8 | D4 G4 E4 E4 | %21
w: vi- gnes, vi- gnes,|vi- gno- let, Mar-|* got la- bou-|rez les vi- gnes|_ bien- tôt.|Mar- got la- bou-|
 D4 D4 D4 B,4 | D4 D4 B,4 D4 | E4 ^F4 G4 D4- | D4 G4 E4 E4 | D4 D4 D4 C4 | D8 B,8 :| %27
w: rez les vi- gnes,|vi- gnes, vi- gnes,|vi- gno- let, Mar-|* got la- bou-|rez les vi- gnes|bien- tôt.|
V:3
 B4 d4 c4 B4 | A4 G4 ^F4 D4 | G4 D4 G4 D4 | G4 A4 B8 | B4 d4 c4 B4 | A4 G4 ^F4 G4 | A8 G8 | %7
w: Mar- got la- bou-|rez les vi- gnes,|vi- gnes, vi- gnes,|vi- gno- let,|Mar- got la- bou-|rez les vi- gnes|bien- tôt.|
 G4 G4 d4 d4 | d4 d4 e4 e4 | d8 B8 | B4 G4 A4 B4 | A4 G4 c4 c4 | A8 G8 | z16 | z16 | G4 G4 B4 B4 | %16
w: En re- ve- nant|de Lor- rai- ne,|Mar- got,|en re- ve- nant|de Lor- rai- ne,|Mar- got,|||vi- gnes, vi- gnes,|
 c4 A4 G8 | G4 B4 A4 G4 | d4 e4 A4 e4 | d8 G8 | B4 d4 c4 B4 | A4 G4 ^F4 D4 | G4 D4 G4 D4 | %23
w: vi- gno- let,|Mar- got la- bou-|rez les vi- gnes|bien- tôt.|Mar- got la- bou-|rez les vi- gnes,|vi- gnes, vi- gnes,|
 G4 A4 B8 | B4 d4 c4 B4 | A4 G4 ^F4 G4 | A8 G8 :| %27
w: vi- gno- let,|Mar- got la- bou-|rez les vi- gnes|bien- tôt.|
V:4
 G,4 G,4 A,4 E,4 | ^F,4 G,4 D,4 G,,4 | G,,4 G,,4 G,,4 B,,4 | C,4 A,,4 G,,8 | G,4 G,4 A,4 E,4 | %5
w: Mar- got la- bou-|rez les vi- gnes,|vi- gnes, vi- gnes,|vi- gno- let,|Mar- got la- bou-|
 ^F,4 G,4 D,4 E,4 | D,8 G,,8 | G,4 E,4 ^F,4 G,4 | G,4 B,4 A,4 G,4 | ^F,2 E,2 G,2 F,2 G,8 | %10
w: rez les vi- gnes|bien- tôt.|En re- ve- nant|de Lor- rai- ne,|Mar- * * * got,|
 E,4 E,4 D,4 G,4 | ^F,4 G,4 C,4 C,4 | D,8 G,,8 | z16 | z16 | z16 | z16 | z16 | z16 | z16 | %20
w: en re- ve- nant|de Lor- rai- ne,|Mar- got,||||||||
 G,4 G,4 A,4 E,4 | ^F,4 G,4 D,4 G,,4 | G,,4 G,,4 G,,4 B,,4 | C,4 A,,4 G,,8 | G,4 G,4 A,4 E,4 | %25
w: Mar- got la- bou-|rez les vi- gnes,|vi- gnes, vi- gnes,|vi- gno- let,|Mar- got la- bou-|
 ^F,4 G,4 D,4 E,4 | D,8 G,,8 :| %27
w: rez les vi- gnes|bien- tôt.|

